Numix-Light/16/status/indicator-keyboard-Mn.svg

<?xml version="1.0" encoding="UTF-8" standalone="no"?>
<svg
   xmlns:dc="http://purl.org/dc/elements/1.1/"
   xmlns:cc="http://creativecommons.org/ns#"
   xmlns:rdf="http://www.w3.org/1999/02/22-rdf-syntax-ns#"
   xmlns:svg="http://www.w3.org/2000/svg"
   xmlns="http://www.w3.org/2000/svg"
   xmlns:sodipodi="http://sodipodi.sourceforge.net/DTD/sodipodi-0.dtd"
   xmlns:inkscape="http://www.inkscape.org/namespaces/inkscape"
   viewBox="0 0 16 16"
   id="svg2"
   version="1.1"
   inkscape:version="0.91 r13725"
   sodipodi:docname="indicator-keyboard-Mn.svg">
  <metadata
     id="metadata13">
    <rdf:RDF>
      <cc:Work
         rdf:about="">
        <dc:format>image/svg+xml</dc:format>
        <dc:type
           rdf:resource="http://purl.org/dc/dcmitype/StillImage" />
      </cc:Work>
    </rdf:RDF>
  </metadata>
  <defs
     id="defs11" />
  <sodipodi:namedview
     pagecolor="#ffffff"
     bordercolor="#666666"
     borderopacity="1"
     objecttolerance="10"
     gridtolerance="10"
     guidetolerance="10"
     inkscape:pageopacity="0"
     inkscape:pageshadow="2"
     inkscape:window-width="640"
     inkscape:window-height="480"
     id="namedview9"
     showgrid="false"
     inkscape:zoom="14.75"
     inkscape:cx="8"
     inkscape:cy="8"
     inkscape:window-x="65"
     inkscape:window-y="24"
     inkscape:window-maximized="0"
     inkscape:current-layer="svg2" />
  <path
     style="fill:#353535;fill-opacity:1"
     d="M 1.5996094 0 C 0.71320937 2.9605947e-16 0 0.71320937 0 1.5996094 L 0 14.400391 C 2.9605947e-16 15.286791 0.71320937 16 1.5996094 16 L 14.400391 16 C 15.286791 16 16 15.286791 16 14.400391 L 16 1.5996094 C 16 0.71320937 15.286791 0 14.400391 0 L 1.5996094 0 z M 2.6757812 4.8808594 L 3.2148438 4.8808594 C 3.3948438 5.1808594 3.5870156 5.5297812 3.7910156 5.9257812 C 3.9950156 6.3157813 4.1965312 6.7243906 4.3945312 7.1503906 C 4.5985312 7.5703906 4.7925156 7.9863906 4.9785156 8.4003906 C 5.1705156 8.8083906 5.340375 9.1778125 5.484375 9.5078125 C 5.628375 9.1778125 5.7925156 8.8083906 5.9785156 8.4003906 C 6.1705156 7.9863906 6.3645 7.5703906 6.5625 7.1503906 C 6.7665 6.7243906 6.9717812 6.3157813 7.1757812 5.9257812 C 7.3797812 5.5297813 7.5719531 5.1808594 7.7519531 4.8808594 L 8.2636719 4.8808594 C 8.3656719 5.8288594 8.449625 6.8233281 8.515625 7.8613281 C 8.587625 8.8993281 8.6510781 9.9851405 8.7050781 11.119141 L 8.0839844 11.119141 C 8.0479844 10.15314 8.0069844 9.2314687 7.9589844 8.3554688 C 7.9169844 7.4734688 7.8572969 6.6582031 7.7792969 5.9082031 C 7.7312969 5.9922031 7.6547344 6.1358438 7.5527344 6.3398438 C 7.4507344 6.5438438 7.335125 6.7807812 7.203125 7.0507812 C 7.071125 7.3207813 6.9330625 7.6118281 6.7890625 7.9238281 C 6.6450625 8.2298281 6.5032344 8.5302188 6.3652344 8.8242188 C 6.2272344 9.1122188 6.1022813 9.379 5.9882812 9.625 C 5.8802812 9.871 5.7963281 10.06875 5.7363281 10.21875 L 5.1855469 10.21875 C 5.1255469 10.06875 5.0397812 9.871 4.9257812 9.625 C 4.8177813 9.379 4.6946406 9.1122187 4.5566406 8.8242188 C 4.4186406 8.5302188 4.2768125 8.2298281 4.1328125 7.9238281 C 3.9888125 7.6118281 3.85075 7.3207813 3.71875 7.0507812 C 3.58675 6.7807812 3.4711406 6.5438438 3.3691406 6.3398438 C 3.2671406 6.1358438 3.1905781 5.9922031 3.1425781 5.9082031 C 3.0645781 6.6582031 3.0030781 7.4734687 2.9550781 8.3554688 C 2.9130781 9.2314687 2.8738906 10.15314 2.8378906 11.119141 L 2.234375 11.119141 C 2.288375 9.9851405 2.3480625 8.8993281 2.4140625 7.8613281 C 2.4860625 6.8233281 2.5737812 5.8288594 2.6757812 4.8808594 z M 11.919922 6.375 C 12.273922 6.375 12.568734 6.4272969 12.802734 6.5292969 C 13.042734 6.6312969 13.231141 6.77675 13.369141 6.96875 C 13.513141 7.15475 13.615781 7.3805312 13.675781 7.6445312 C 13.735781 7.9085312 13.765625 8.1995781 13.765625 8.5175781 L 13.765625 11.119141 L 13.179688 11.119141 L 13.179688 8.7070312 C 13.179688 8.3770313 13.157375 8.0971406 13.109375 7.8691406 C 13.067375 7.6411406 12.990813 7.4545469 12.882812 7.3105469 C 12.780812 7.1665469 12.64275 7.0658594 12.46875 7.0058594 C 12.30075 6.9398594 12.088078 6.90625 11.830078 6.90625 C 11.554078 6.90625 11.315328 6.9211719 11.111328 6.9511719 C 10.913328 6.9811719 10.782656 7.0092031 10.722656 7.0332031 L 10.722656 11.119141 L 10.138672 11.119141 L 10.138672 6.6269531 C 10.312672 6.5789531 10.545844 6.5248438 10.839844 6.4648438 C 11.133844 6.4048438 11.493922 6.375 11.919922 6.375 z "
     id="path4" />
</svg>

<svg xmlns="http://www.w3.org/2000/svg" viewBox="0 0 16 16">
 <path d="m 1.6 0 c -0.886 0 -1.6 0.713 -1.6 1.6 l 0 12.801 c 0 0.886 0.713 1.6 1.6 1.6 l 12.801 0 c 0.886 0 1.6 -0.713 1.6 -1.6 l 0 -12.801 c 0 -0.886 -0.713 -1.6 -1.6 -1.6 l -12.801 0 z m 1.076 4.881 l 0.539 0 c 0.18 0.3 0.372 0.649 0.576 1.045 c 0.204 0.39 0.406 0.799 0.604 1.225 c 0.204 0.42 0.398 0.836 0.584 1.25 c 0.192 0.408 0.362 0.777 0.506 1.107 c 0.144 -0.33 0.308 -0.699 0.494 -1.107 c 0.192 -0.414 0.386 -0.83 0.584 -1.25 c 0.204 -0.426 0.409 -0.835 0.613 -1.225 c 0.204 -0.396 0.396 -0.745 0.576 -1.045 l 0.512 0 c 0.102 0.948 0.186 1.942 0.252 2.98 c 0.072 1.038 0.135 2.124 0.189 3.258 l -0.621 0 c -0.036 -0.966 -0.077 -1.888 -0.125 -2.764 c -0.042 -0.882 -0.102 -1.697 -0.18 -2.447 c -0.048 0.084 -0.125 0.228 -0.227 0.432 c -0.102 0.204 -0.218 0.441 -0.35 0.711 c -0.132 0.27 -0.27 0.561 -0.414 0.873 c -0.144 0.306 -0.286 0.606 -0.424 0.9 c -0.138 0.288 -0.263 0.555 -0.377 0.801 c -0.108 0.246 -0.192 0.444 -0.252 0.594 l -0.551 0 c -0.06 -0.15 -0.146 -0.348 -0.26 -0.594 c -0.108 -0.246 -0.231 -0.513 -0.369 -0.801 c -0.138 -0.294 -0.28 -0.594 -0.424 -0.9 c -0.144 -0.312 -0.282 -0.603 -0.414 -0.873 c -0.132 -0.27 -0.248 -0.507 -0.35 -0.711 c -0.102 -0.204 -0.179 -0.348 -0.227 -0.432 c -0.078 0.75 -0.139 1.565 -0.188 2.447 c -0.042 0.876 -0.081 1.798 -0.117 2.764 l -0.604 0 c 0.054 -1.134 0.114 -2.22 0.18 -3.258 c 0.072 -1.038 0.16 -2.032 0.262 -2.98 z m 9.244 1.494 c 0.354 0 0.649 0.052 0.883 0.154 c 0.24 0.102 0.428 0.247 0.566 0.439 c 0.144 0.186 0.247 0.412 0.307 0.676 c 0.06 0.264 0.09 0.555 0.09 0.873 l 0 2.602 l -0.586 0 l 0 -2.412 c 0 -0.33 -0.022 -0.61 -0.07 -0.838 c -0.042 -0.228 -0.119 -0.415 -0.227 -0.559 c -0.102 -0.144 -0.24 -0.245 -0.414 -0.305 c -0.168 -0.066 -0.381 -0.1 -0.639 -0.1 c -0.276 0 -0.515 0.015 -0.719 0.045 c -0.198 0.03 -0.329 0.058 -0.389 0.082 l 0 4.086 l -0.584 0 l 0 -4.492 c 0.174 -0.048 0.407 -0.102 0.701 -0.162 c 0.294 -0.06 0.654 -0.09 1.08 -0.09 z" style="fill:#353535;fill-opacity:1"/>
</svg>
